X:1
T:I Belong to Jesus
T:I Belong to Jesus
T:Edmund Simon Lorenz
T:Edmund Simon Lorenz, 1901
T:Public Domain Courtesy of the Cyber Hymnal™
C:Edmund Simon Lorenz
Z:Public Domain
Z:Courtesy of the Cyber Hymnal™
%%score ( 1 2 ) ( 3 4 )
L:1/8
Q:1/4=83
M:2/4
K:F
V:1 treble 
V:2 treble 
V:3 bass 
V:4 bass 
V:1
 C | [CF][CF] [CF][EG] | [FA][FA] [FA]2 | [EG]>F [EA]>[EG] | [EG] F2 C | [CF][CF] [CF][EG] | %6
w: 1.~With|ev- ery power, with|heart and soul,|I be- long to|Je- sus! He|shall my ev- ery|
w: 2.~What|tho’ temp- ta- tions|sore be- set,|I be- long to|Je- sus! What|tho’ earth’s cares an-|
w: 3.~In|vain the world my|heart al- lures,|I be- long to|Je- sus! In|weak- ness this my|
 [FA][FA] [FA]2 | [EG]>F [EA]>[EG] | [EG] F2 z ||"^Refrain" [Fd]>[Fd] [Fd]>[Fd] | [Fd] [Fc]2 z | %11
w: thought con- trol,|I be- long to|Je- sus!|||
w: noy and fret,|I be- long to|Je- sus!|I be- long to|Je- sus!|
w: soul as- sures,|I be- long to|Je- sus!|||
 [EB]>[EB] [EB]>[GB] | [GB] [FA]2 z | [Fd]>[Fd] [Fd]>[Fd][Fd][Fc]F[FG] | [FA]2 [EG]2 | F3 |] %16
w: |||||
w: I be- long to|Je- sus!|I be- long to Je- sus, He be-|longs to|me!|
w: |||||
V:2
 C | x4 | x4 | x3/2 F/ x2 | x F2 C | x4 | x4 | x3/2 F/ x2 | x F2 x || x4 | x4 | x4 | x4 | x6 F x | %14
 x4 | F3 |] %16
V:3
 [F,A,] | [F,A,][F,A,] [F,A,][C,C] | [F,C][F,C] [F,C]2 | [C,B,]>[C,A,] [C,C]>[C,B,] | %4
 [C,B,] [F,A,]2 [F,A,] | [F,A,][F,A,] [F,A,][C,C] | [F,C][F,C] [F,C]2 | %7
 [C,B,]>[C,A,] [C,C]>[C,B,] | [C,B,] [F,A,]2 z || B,>B, B,>B, | [F,B,] [F,A,]2 z | %11
 [C,G,]>[C,G,] [C,G,]>[C,C] | [F,C] [F,C]2 z | B,>B, B,>B,[F,B,][F,A,][A,,C][B,,D] | %14
 [C,C]2 [C,B,]2 | [F,A,]3 |] %16
V:4
 x | x4 | x4 | x4 | x4 | x4 | x4 | x4 | x4 || B,>B, B,>B, | x4 | x4 | x4 | B,>B, B,>B, x4 | x4 | %15
 x3 |] %16

